report_00007_2020-12-11T15:55:29.892Z/metrics/comparison/line/12_vs_13.svg

<svg width="640" height="500" xmlns="http://www.w3.org/2000/svg" xmlns:xlink="http://www.w3.org/1999/xlink"><path fill="#fff" d="M0 0h640v500H0z"/><defs><path id="d" stroke-width=".222" stroke="currentColor" d="M-1-1h2v2h-2z"/><path id="b" stroke-width=".222" stroke="currentColor" d="M0-1.33l-1.33 2h2.66z"/><path id="f" stroke-width=".222" stroke="currentColor" d="M0 1.33L1.265.411.782-1.067l-1.564-.009-.483 1.487z"/><use xlink:href="#b" id="c" stroke="currentColor" transform="rotate(180)"/><use xlink:href="#d" id="e" stroke="currentColor" transform="rotate(45)"/><circle id="a" stroke-width=".222" stroke="currentColor" cx="0" cy="0" r="1"/></defs><g fill="none" color="#000" stroke="currentColor"><path stroke="#000" d="M62.2 389.8h9m543.8 0h-9"/><text transform="translate(53.9 393.7)" stroke="none" fill="#000" font-family="Arial" font-size="12" text-anchor="end"><tspan>1520</tspan></text></g><g fill="none" color="#000" stroke="currentColor"><path stroke="#000" d="M62.2 343.2h9m543.8 0h-9"/><text transform="translate(53.9 347.1)" stroke="none" fill="#000" font-family="Arial" font-size="12" text-anchor="end"><tspan>1540</tspan></text></g><g fill="none" color="#000" stroke="currentColor"><path stroke="#000" d="M62.2 296.5h9m543.8 0h-9"/><text transform="translate(53.9 300.4)" stroke="none" fill="#000" font-family="Arial" font-size="12" text-anchor="end"><tspan>1560</tspan></text></g><g fill="none" color="#000" stroke="currentColor"><path stroke="#000" d="M62.2 249.9h9m543.8 0h-9"/><text transform="translate(53.9 253.8)" stroke="none" fill="#000" font-family="Arial" font-size="12" text-anchor="end"><tspan>1580</tspan></text></g><g fill="none" color="#000" stroke="currentColor"><path stroke="#000" d="M62.2 203.2h9m543.8 0h-9"/><text transform="translate(53.9 207.1)" stroke="none" fill="#000" font-family="Arial" font-size="12" text-anchor="end"><tspan>1600</tspan></text></g><g fill="none" color="#000" stroke="currentColor"><path stroke="#000" d="M62.2 156.6h9m543.8 0h-9"/><text transform="translate(53.9 160.5)" stroke="none" fill="#000" font-family="Arial" font-size="12" text-anchor="end"><tspan>1620</tspan></text></g><g fill="none" color="#000" stroke="currentColor"><path stroke="#000" d="M62.2 109.9h9m543.8 0h-9"/><text transform="translate(53.9 113.8)" stroke="none" fill="#000" font-family="Arial" font-size="12" text-anchor="end"><tspan>1640</tspan></text></g><g fill="none" color="#000" stroke="currentColor"><path stroke="#000" d="M62.2 63.3h9m543.8 0h-9"/><text transform="translate(53.9 67.2)" stroke="none" fill="#000" font-family="Arial" font-size="12" text-anchor="end"><tspan>1660</tspan></text></g><g fill="none" color="#000" stroke="currentColor"><path stroke="#000" d="M62.2 428v-9m0-400.9v9"/><text transform="translate(62.2 449.9)" stroke="none" fill="#000" font-family="Arial" font-size="12" text-anchor="middle"><tspan>0</tspan></text></g><g fill="none" color="#000" stroke="currentColor"><path stroke="#000" d="M118 428v-9m0-400.9v9"/><text transform="translate(118 449.9)" stroke="none" fill="#000" font-family="Arial" font-size="12" text-anchor="middle"><tspan>10</tspan></text></g><g fill="none" color="#000" stroke="currentColor"><path stroke="#000" d="M173.9 428v-9m0-400.9v9"/><text transform="translate(173.9 449.9)" stroke="none" fill="#000" font-family="Arial" font-size="12" text-anchor="middle"><tspan>20</tspan></text></g><g fill="none" color="#000" stroke="currentColor"><path stroke="#000" d="M229.7 428v-9m0-400.9v9"/><text transform="translate(229.7 449.9)" stroke="none" fill="#000" font-family="Arial" font-size="12" text-anchor="middle"><tspan>30</tspan></text></g><g fill="none" color="#000" stroke="currentColor"><path stroke="#000" d="M285.6 428v-9m0-400.9v9"/><text transform="translate(285.6 449.9)" stroke="none" fill="#000" font-family="Arial" font-size="12" text-anchor="middle"><tspan>40</tspan></text></g><g fill="none" color="#000" stroke="currentColor"><path stroke="#000" d="M341.4 428v-9m0-400.9v9"/><text transform="translate(341.4 449.9)" stroke="none" fill="#000" font-family="Arial" font-size="12" text-anchor="middle"><tspan>50</tspan></text></g><g fill="none" color="#000" stroke="currentColor"><path stroke="#000" d="M397.2 428v-9m0-400.9v9"/><text transform="translate(397.2 449.9)" stroke="none" fill="#000" font-family="Arial" font-size="12" text-anchor="middle"><tspan>60</tspan></text></g><g fill="none" color="#000" stroke="currentColor"><path stroke="#000" d="M453.1 428v-9m0-400.9v9"/><text transform="translate(453.1 449.9)" stroke="none" fill="#000" font-family="Arial" font-size="12" text-anchor="middle"><tspan>70</tspan></text></g><g fill="none" color="#000" stroke="currentColor"><path stroke="#000" d="M508.9 428v-9m0-400.9v9"/><text transform="translate(508.9 449.9)" stroke="none" fill="#000" font-family="Arial" font-size="12" text-anchor="middle"><tspan>80</tspan></text></g><g fill="none" color="#000" stroke="currentColor"><path stroke="#000" d="M564.7 428v-9m0-400.9v9"/><text transform="translate(564.7 449.9)" stroke="none" fill="#000" font-family="Arial" font-size="12" text-anchor="middle"><tspan>90</tspan></text></g><path stroke="#000" d="M62.2 18.1V428H615V18.1H62.2z" fill="none" color="#000"/><text transform="translate(533.3 467.9)" stroke="none" fill="#000" font-family="Arial" font-size="12" text-anchor="end" color="#000"><tspan>pages+cached+noexternal+nofonts+nosvg+noimg+nocss</tspan></text><path stroke="#9400D3" d="M541.6 464h42.2M62.2 56.3l5.6-2.3 5.6 2.3L79 47l5.5 2.3 5.6 7 5.6-4.7 5.6-2.3 5.6 4.7 5.6-2.4L118 54l5.6 4.6 5.6-16.3 5.6 11.7 5.6-2.4 5.6 4.7 5.5-2.3 5.6-16.4 5.6 16.4 5.6-4.7 5.6-23.3 5.6 28 5.5-4.7 5.6 9.3h5.6l5.6-7h5.6l5.6-2.3 5.5 7 5.6-2.3 5.6 4.6 5.6-2.3 5.6-9.3 5.6 7 5.6-4.7 5.5 2.3 5.6 2.4 5.6-4.7 5.6 7 5.6-7 5.6 4.7h5.5l5.6 7 5.6-7 5.6-2.4h5.6l5.6 2.4h5.5l5.6 7 5.6-9.4 5.6 2.4h11.2l5.5 2.3 5.6-7 5.6 11.7 5.6-4.7h5.6l5.6-2.3 5.5-2.4 5.6-4.6 5.6 9.3 5.6 2.3 5.6-2.3 5.6-4.7 5.5 4.7 5.6-9.3 5.6 11.6 5.6-7 5.6 4.7h5.6l5.6-9.3 5.5 9.3 5.6 2.3 5.6-18.6 5.6 11.6 5.6 7 5.6-2.3h5.5l5.6-9.3 5.6 7 5.6-2.4 5.6 2.4 5.6 2.3 5.5-7h5.6l5.6 7L548 54l5.6-4.7 5.6 4.7h5.5l5.6-2.4 5.6 4.7 5.6 2.3 5.6-4.6 5.6 2.3 5.5-2.3 5.6-4.7 5.6 9.3 5.6-7" fill="none" color="#000"/><text transform="translate(533.3 485.9)" stroke="none" fill="#000" font-family="Arial" font-size="12" text-anchor="end" color="#000"><tspan>pages+cached+noexternal+nofonts+nosvg+noimg+nocss+nojs</tspan></text><path stroke="#009E73" d="M541.6 482h42.2M62.2 413.1l5.6 4.7 5.6-2.3 5.6 4.6 5.5-4.6 5.6 2.3 5.6-2.3 5.6 4.6 5.6-7 5.6 2.4h5.5l5.6-2.4 5.6 7 5.6-4.6h16.7l5.6-2.4 5.6 2.4h5.6l5.6-2.4 5.6 4.7 5.5-2.3h5.6l5.6-2.4 5.6 2.4 5.6-2.4 5.6 2.4h5.5l5.6-2.4 5.6 2.4 5.6 2.3 5.6-4.7 5.6 2.4 5.6 2.3 5.5-4.7 5.6 4.7 5.6-2.3h5.6l5.6 2.3h5.6l5.5-4.7 5.6 4.7h5.6l5.6 2.3 5.6-4.6 5.6-2.4h16.7l5.6 2.4H363.7l5.6 2.3 5.6-2.3 5.6-2.4h11.1l5.6 2.4h5.6l5.6-2.4 5.6 2.4 5.6 2.3h5.5l5.6-2.3h11.2l5.6 4.6 5.6-4.6H481l5.6-2.4 5.6 2.4h5.5l5.6-2.4 5.6 2.4 5.6-2.4 5.6 7 5.6-7 5.5 4.7 5.6-2.3h5.6l5.6 2.3 5.6-4.7 5.6 2.4h11.1l5.6-2.4 5.6 2.4 5.6 4.6 5.6-2.3 5.5-2.3h5.6l5.6-2.4 5.6 7" fill="none" color="#000"/><g fill="none" color="#000" stroke="currentColor"><path stroke="#000" d="M62.2 18.1V428H615V18.1H62.2z"/></g></svg>

<?xml version="1.0" encoding="utf-8"  standalone="no"?>
<svg 
 width="640" height="500"
 viewBox="0 0 640 500"
 xmlns="http://www.w3.org/2000/svg"
 xmlns:xlink="http://www.w3.org/1999/xlink"
>

<title>Gnuplot</title>
<desc>Produced by GNUPLOT 5.4 patchlevel 0 </desc>

<g id="gnuplot_canvas">

<rect x="0" y="0" width="640" height="500" fill="#ffffff"/>
<defs>

	<circle id='gpDot' r='0.5' stroke-width='0.5' stroke='currentColor'/>
	<path id='gpPt0' stroke-width='0.222' stroke='currentColor' d='M-1,0 h2 M0,-1 v2'/>
	<path id='gpPt1' stroke-width='0.222' stroke='currentColor' d='M-1,-1 L1,1 M1,-1 L-1,1'/>
	<path id='gpPt2' stroke-width='0.222' stroke='currentColor' d='M-1,0 L1,0 M0,-1 L0,1 M-1,-1 L1,1 M-1,1 L1,-1'/>
	<rect id='gpPt3' stroke-width='0.222' stroke='currentColor' x='-1' y='-1' width='2' height='2'/>
	<rect id='gpPt4' stroke-width='0.222' stroke='currentColor' fill='currentColor' x='-1' y='-1' width='2' height='2'/>
	<circle id='gpPt5' stroke-width='0.222' stroke='currentColor' cx='0' cy='0' r='1'/>
	<use xlink:href='#gpPt5' id='gpPt6' fill='currentColor' stroke='none'/>
	<path id='gpPt7' stroke-width='0.222' stroke='currentColor' d='M0,-1.33 L-1.33,0.67 L1.33,0.67 z'/>
	<use xlink:href='#gpPt7' id='gpPt8' fill='currentColor' stroke='none'/>
	<use xlink:href='#gpPt7' id='gpPt9' stroke='currentColor' transform='rotate(180)'/>
	<use xlink:href='#gpPt9' id='gpPt10' fill='currentColor' stroke='none'/>
	<use xlink:href='#gpPt3' id='gpPt11' stroke='currentColor' transform='rotate(45)'/>
	<use xlink:href='#gpPt11' id='gpPt12' fill='currentColor' stroke='none'/>
	<path id='gpPt13' stroke-width='0.222' stroke='currentColor' d='M0,1.330 L1.265,0.411 L0.782,-1.067 L-0.782,-1.076 L-1.265,0.411 z'/>
	<use xlink:href='#gpPt13' id='gpPt14' fill='currentColor' stroke='none'/>
	<filter id='textbox' filterUnits='objectBoundingBox' x='0' y='0' height='1' width='1'>
	  <feFlood flood-color='#FFFFFF' flood-opacity='1' result='bgnd'/>
	  <feComposite in='SourceGraphic' in2='bgnd' operator='atop'/>
	</filter>
	<filter id='greybox' filterUnits='objectBoundingBox' x='0' y='0' height='1' width='1'>
	  <feFlood flood-color='lightgrey' flood-opacity='1' result='grey'/>
	  <feComposite in='SourceGraphic' in2='grey' operator='atop'/>
	</filter>
</defs>
<g fill="none" color="#FFFFFF" stroke="black" stroke-width="1.00" stroke-linecap="butt" stroke-linejoin="miter">
</g>
<g fill="none" color="black" stroke="currentColor" stroke-width="1.00" stroke-linecap="butt" stroke-linejoin="miter">
	<path stroke='black'  d='M62.2,389.8 L71.2,389.8 M615.0,389.8 L606.0,389.8  '/>	<g transform="translate(53.9,393.7)" stroke="none" fill="black" font-family="Arial" font-size="12.00"  text-anchor="end">
		<text><tspan font-family="Arial" > 1520</tspan></text>
	</g>
</g>
<g fill="none" color="black" stroke="currentColor" stroke-width="1.00" stroke-linecap="butt" stroke-linejoin="miter">
	<path stroke='black'  d='M62.2,343.2 L71.2,343.2 M615.0,343.2 L606.0,343.2  '/>	<g transform="translate(53.9,347.1)" stroke="none" fill="black" font-family="Arial" font-size="12.00"  text-anchor="end">
		<text><tspan font-family="Arial" > 1540</tspan></text>
	</g>
</g>
<g fill="none" color="black" stroke="currentColor" stroke-width="1.00" stroke-linecap="butt" stroke-linejoin="miter">
	<path stroke='black'  d='M62.2,296.5 L71.2,296.5 M615.0,296.5 L606.0,296.5  '/>	<g transform="translate(53.9,300.4)" stroke="none" fill="black" font-family="Arial" font-size="12.00"  text-anchor="end">
		<text><tspan font-family="Arial" > 1560</tspan></text>
	</g>
</g>
<g fill="none" color="black" stroke="currentColor" stroke-width="1.00" stroke-linecap="butt" stroke-linejoin="miter">
	<path stroke='black'  d='M62.2,249.9 L71.2,249.9 M615.0,249.9 L606.0,249.9  '/>	<g transform="translate(53.9,253.8)" stroke="none" fill="black" font-family="Arial" font-size="12.00"  text-anchor="end">
		<text><tspan font-family="Arial" > 1580</tspan></text>
	</g>
</g>
<g fill="none" color="black" stroke="currentColor" stroke-width="1.00" stroke-linecap="butt" stroke-linejoin="miter">
	<path stroke='black'  d='M62.2,203.2 L71.2,203.2 M615.0,203.2 L606.0,203.2  '/>	<g transform="translate(53.9,207.1)" stroke="none" fill="black" font-family="Arial" font-size="12.00"  text-anchor="end">
		<text><tspan font-family="Arial" > 1600</tspan></text>
	</g>
</g>
<g fill="none" color="black" stroke="currentColor" stroke-width="1.00" stroke-linecap="butt" stroke-linejoin="miter">
	<path stroke='black'  d='M62.2,156.6 L71.2,156.6 M615.0,156.6 L606.0,156.6  '/>	<g transform="translate(53.9,160.5)" stroke="none" fill="black" font-family="Arial" font-size="12.00"  text-anchor="end">
		<text><tspan font-family="Arial" > 1620</tspan></text>
	</g>
</g>
<g fill="none" color="black" stroke="currentColor" stroke-width="1.00" stroke-linecap="butt" stroke-linejoin="miter">
	<path stroke='black'  d='M62.2,109.9 L71.2,109.9 M615.0,109.9 L606.0,109.9  '/>	<g transform="translate(53.9,113.8)" stroke="none" fill="black" font-family="Arial" font-size="12.00"  text-anchor="end">
		<text><tspan font-family="Arial" > 1640</tspan></text>
	</g>
</g>
<g fill="none" color="black" stroke="currentColor" stroke-width="1.00" stroke-linecap="butt" stroke-linejoin="miter">
	<path stroke='black'  d='M62.2,63.3 L71.2,63.3 M615.0,63.3 L606.0,63.3  '/>	<g transform="translate(53.9,67.2)" stroke="none" fill="black" font-family="Arial" font-size="12.00"  text-anchor="end">
		<text><tspan font-family="Arial" > 1660</tspan></text>
	</g>
</g>
<g fill="none" color="black" stroke="currentColor" stroke-width="1.00" stroke-linecap="butt" stroke-linejoin="miter">
	<path stroke='black'  d='M62.2,428.0 L62.2,419.0 M62.2,18.1 L62.2,27.1  '/>	<g transform="translate(62.2,449.9)" stroke="none" fill="black" font-family="Arial" font-size="12.00"  text-anchor="middle">
		<text><tspan font-family="Arial" > 0</tspan></text>
	</g>
</g>
<g fill="none" color="black" stroke="currentColor" stroke-width="1.00" stroke-linecap="butt" stroke-linejoin="miter">
	<path stroke='black'  d='M118.0,428.0 L118.0,419.0 M118.0,18.1 L118.0,27.1  '/>	<g transform="translate(118.0,449.9)" stroke="none" fill="black" font-family="Arial" font-size="12.00"  text-anchor="middle">
		<text><tspan font-family="Arial" > 10</tspan></text>
	</g>
</g>
<g fill="none" color="black" stroke="currentColor" stroke-width="1.00" stroke-linecap="butt" stroke-linejoin="miter">
	<path stroke='black'  d='M173.9,428.0 L173.9,419.0 M173.9,18.1 L173.9,27.1  '/>	<g transform="translate(173.9,449.9)" stroke="none" fill="black" font-family="Arial" font-size="12.00"  text-anchor="middle">
		<text><tspan font-family="Arial" > 20</tspan></text>
	</g>
</g>
<g fill="none" color="black" stroke="currentColor" stroke-width="1.00" stroke-linecap="butt" stroke-linejoin="miter">
	<path stroke='black'  d='M229.7,428.0 L229.7,419.0 M229.7,18.1 L229.7,27.1  '/>	<g transform="translate(229.7,449.9)" stroke="none" fill="black" font-family="Arial" font-size="12.00"  text-anchor="middle">
		<text><tspan font-family="Arial" > 30</tspan></text>
	</g>
</g>
<g fill="none" color="black" stroke="currentColor" stroke-width="1.00" stroke-linecap="butt" stroke-linejoin="miter">
	<path stroke='black'  d='M285.6,428.0 L285.6,419.0 M285.6,18.1 L285.6,27.1  '/>	<g transform="translate(285.6,449.9)" stroke="none" fill="black" font-family="Arial" font-size="12.00"  text-anchor="middle">
		<text><tspan font-family="Arial" > 40</tspan></text>
	</g>
</g>
<g fill="none" color="black" stroke="currentColor" stroke-width="1.00" stroke-linecap="butt" stroke-linejoin="miter">
	<path stroke='black'  d='M341.4,428.0 L341.4,419.0 M341.4,18.1 L341.4,27.1  '/>	<g transform="translate(341.4,449.9)" stroke="none" fill="black" font-family="Arial" font-size="12.00"  text-anchor="middle">
		<text><tspan font-family="Arial" > 50</tspan></text>
	</g>
</g>
<g fill="none" color="black" stroke="currentColor" stroke-width="1.00" stroke-linecap="butt" stroke-linejoin="miter">
	<path stroke='black'  d='M397.2,428.0 L397.2,419.0 M397.2,18.1 L397.2,27.1  '/>	<g transform="translate(397.2,449.9)" stroke="none" fill="black" font-family="Arial" font-size="12.00"  text-anchor="middle">
		<text><tspan font-family="Arial" > 60</tspan></text>
	</g>
</g>
<g fill="none" color="black" stroke="currentColor" stroke-width="1.00" stroke-linecap="butt" stroke-linejoin="miter">
	<path stroke='black'  d='M453.1,428.0 L453.1,419.0 M453.1,18.1 L453.1,27.1  '/>	<g transform="translate(453.1,449.9)" stroke="none" fill="black" font-family="Arial" font-size="12.00"  text-anchor="middle">
		<text><tspan font-family="Arial" > 70</tspan></text>
	</g>
</g>
<g fill="none" color="black" stroke="currentColor" stroke-width="1.00" stroke-linecap="butt" stroke-linejoin="miter">
	<path stroke='black'  d='M508.9,428.0 L508.9,419.0 M508.9,18.1 L508.9,27.1  '/>	<g transform="translate(508.9,449.9)" stroke="none" fill="black" font-family="Arial" font-size="12.00"  text-anchor="middle">
		<text><tspan font-family="Arial" > 80</tspan></text>
	</g>
</g>
<g fill="none" color="black" stroke="currentColor" stroke-width="1.00" stroke-linecap="butt" stroke-linejoin="miter">
	<path stroke='black'  d='M564.7,428.0 L564.7,419.0 M564.7,18.1 L564.7,27.1  '/>	<g transform="translate(564.7,449.9)" stroke="none" fill="black" font-family="Arial" font-size="12.00"  text-anchor="middle">
		<text><tspan font-family="Arial" > 90</tspan></text>
	</g>
</g>
<g fill="none" color="black" stroke="currentColor" stroke-width="1.00" stroke-linecap="butt" stroke-linejoin="miter">
</g>
<g fill="none" color="black" stroke="currentColor" stroke-width="1.00" stroke-linecap="butt" stroke-linejoin="miter">
	<path stroke='black'  d='M62.2,18.1 L62.2,428.0 L615.0,428.0 L615.0,18.1 L62.2,18.1 Z  '/></g>
<g fill="none" color="black" stroke="currentColor" stroke-width="1.00" stroke-linecap="butt" stroke-linejoin="miter">
</g>
	<g id="gnuplot_plot_1" ><title>pages+cached+noexternal+nofonts+nosvg+noimg+nocss</title>
<g fill="none" color="black" stroke="currentColor" stroke-width="1.00" stroke-linecap="butt" stroke-linejoin="miter">
	<g transform="translate(533.3,467.9)" stroke="none" fill="black" font-family="Arial" font-size="12.00"  text-anchor="end">
		<text><tspan font-family="Arial" >pages+cached+noexternal+nofonts+nosvg+noimg+nocss</tspan></text>
	</g>
</g>
<g fill="none" color="black" stroke="currentColor" stroke-width="1.00" stroke-linecap="butt" stroke-linejoin="miter">
	<path stroke='rgb(148,   0, 211)'  d='M541.6,464.0 L583.8,464.0 M62.2,56.3 L67.8,54.0 L73.4,56.3 L79.0,47.0 L84.5,49.3 L90.1,56.3
		L95.7,51.6 L101.3,49.3 L106.9,54.0 L112.5,51.6 L118.0,54.0 L123.6,58.6 L129.2,42.3 L134.8,54.0
		L140.4,51.6 L146.0,56.3 L151.5,54.0 L157.1,37.6 L162.7,54.0 L168.3,49.3 L173.9,26.0 L179.5,54.0
		L185.0,49.3 L190.6,58.6 L196.2,58.6 L201.8,51.6 L207.4,51.6 L213.0,49.3 L218.5,56.3 L224.1,54.0
		L229.7,58.6 L235.3,56.3 L240.9,47.0 L246.5,54.0 L252.1,49.3 L257.6,51.6 L263.2,54.0 L268.8,49.3
		L274.4,56.3 L280.0,49.3 L285.6,54.0 L291.1,54.0 L296.7,61.0 L302.3,54.0 L307.9,51.6 L313.5,51.6
		L319.1,54.0 L324.6,54.0 L330.2,61.0 L335.8,51.6 L341.4,54.0 L347.0,54.0 L352.6,54.0 L358.1,56.3
		L363.7,49.3 L369.3,61.0 L374.9,56.3 L380.5,56.3 L386.1,54.0 L391.6,51.6 L397.2,47.0 L402.8,56.3
		L408.4,58.6 L414.0,56.3 L419.6,51.6 L425.1,56.3 L430.7,47.0 L436.3,58.6 L441.9,51.6 L447.5,56.3
		L453.1,56.3 L458.7,47.0 L464.2,56.3 L469.8,58.6 L475.4,40.0 L481.0,51.6 L486.6,58.6 L492.2,56.3
		L497.7,56.3 L503.3,47.0 L508.9,54.0 L514.5,51.6 L520.1,54.0 L525.7,56.3 L531.2,49.3 L536.8,49.3
		L542.4,56.3 L548.0,54.0 L553.6,49.3 L559.2,54.0 L564.7,54.0 L570.3,51.6 L575.9,56.3 L581.5,58.6
		L587.1,54.0 L592.7,56.3 L598.2,54.0 L603.8,49.3 L609.4,58.6 L615.0,51.6  '/></g>
	</g>
	<g id="gnuplot_plot_2" ><title>pages+cached+noexternal+nofonts+nosvg+noimg+nocss+nojs</title>
<g fill="none" color="black" stroke="currentColor" stroke-width="1.00" stroke-linecap="butt" stroke-linejoin="miter">
	<g transform="translate(533.3,485.9)" stroke="none" fill="black" font-family="Arial" font-size="12.00"  text-anchor="end">
		<text><tspan font-family="Arial" >pages+cached+noexternal+nofonts+nosvg+noimg+nocss+nojs</tspan></text>
	</g>
</g>
<g fill="none" color="black" stroke="currentColor" stroke-width="1.00" stroke-linecap="butt" stroke-linejoin="miter">
	<path stroke='rgb(  0, 158, 115)'  d='M541.6,482.0 L583.8,482.0 M62.2,413.1 L67.8,417.8 L73.4,415.5 L79.0,420.1 L84.5,415.5 L90.1,417.8
		L95.7,415.5 L101.3,420.1 L106.9,413.1 L112.5,415.5 L118.0,415.5 L123.6,413.1 L129.2,420.1 L134.8,415.5
		L140.4,415.5 L146.0,415.5 L151.5,415.5 L157.1,413.1 L162.7,415.5 L168.3,415.5 L173.9,413.1 L179.5,417.8
		L185.0,415.5 L190.6,415.5 L196.2,413.1 L201.8,415.5 L207.4,413.1 L213.0,415.5 L218.5,415.5 L224.1,413.1
		L229.7,415.5 L235.3,417.8 L240.9,413.1 L246.5,415.5 L252.1,417.8 L257.6,413.1 L263.2,417.8 L268.8,415.5
		L274.4,415.5 L280.0,417.8 L285.6,417.8 L291.1,413.1 L296.7,417.8 L302.3,417.8 L307.9,420.1 L313.5,415.5
		L319.1,413.1 L324.6,413.1 L330.2,413.1 L335.8,413.1 L341.4,415.5 L347.0,415.5 L352.6,415.5 L358.1,415.5
		L363.7,415.5 L369.3,417.8 L374.9,415.5 L380.5,413.1 L386.1,413.1 L391.6,413.1 L397.2,415.5 L402.8,415.5
		L408.4,413.1 L414.0,415.5 L419.6,417.8 L425.1,417.8 L430.7,415.5 L436.3,415.5 L441.9,415.5 L447.5,420.1
		L453.1,415.5 L458.7,415.5 L464.2,415.5 L469.8,415.5 L475.4,415.5 L481.0,415.5 L486.6,413.1 L492.2,415.5
		L497.7,415.5 L503.3,413.1 L508.9,415.5 L514.5,413.1 L520.1,420.1 L525.7,413.1 L531.2,417.8 L536.8,415.5
		L542.4,415.5 L548.0,417.8 L553.6,413.1 L559.2,415.5 L564.7,415.5 L570.3,415.5 L575.9,413.1 L581.5,415.5
		L587.1,420.1 L592.7,417.8 L598.2,415.5 L603.8,415.5 L609.4,413.1 L615.0,420.1  '/></g>
	</g>
<g fill="none" color="#FFFFFF" stroke="rgb(  0, 158, 115)" stroke-width="2.00" stroke-linecap="butt" stroke-linejoin="miter">
</g>
<g fill="none" color="black" stroke="currentColor" stroke-width="2.00" stroke-linecap="butt" stroke-linejoin="miter">
</g>
<g fill="none" color="black" stroke="black" stroke-width="1.00" stroke-linecap="butt" stroke-linejoin="miter">
</g>
<g fill="none" color="black" stroke="currentColor" stroke-width="1.00" stroke-linecap="butt" stroke-linejoin="miter">
	<path stroke='black'  d='M62.2,18.1 L62.2,428.0 L615.0,428.0 L615.0,18.1 L62.2,18.1 Z  '/></g>
<g fill="none" color="black" stroke="currentColor" stroke-width="1.00" stroke-linecap="butt" stroke-linejoin="miter">
</g>
</g>
</svg>
